svgs/memetastic.svg

<svg xmlns="http://www.w3.org/2000/svg" viewBox="0 0 192 192"><path fill="none" stroke="#000" stroke-linecap="round" stroke-linejoin="round" stroke-width="8" d="M44.733 175.5s-4.297-10.271-3.652-13.536a42.38 42.38 0 0 0-2.192-14.396c-.731-1.633-4.297-16.803-4.684-18.994-.387-2.192-1.461-21.874 0-23.679a25.17 25.17 0 0 0 4.598-8.594 22.554 22.554 0 0 1 1.719-11.388c1.977-2.879 25.784-29.437 29.479-30.898 3.696-1.461 8.294-2.148 9.583-3.051a105.854 105.854 0 0 1 25.011-5.371c7.391 0 28.018 9.024 33.089 27.288 5.071 18.263 14.697 23.119 16.33 26.385 1.632 3.266 2.191 32.187 2.191 40.309 0 8.121 3.051 12.29 2.149 15.169-.903 2.879-6.962 20.756-6.962 20.756"/><path fill="none" stroke="#000" stroke-linecap="round" stroke-linejoin="round" stroke-width="8" d="M88.952 142.282a16.08 16.08 0 0 0 6.99 9.097 16.08 16.08 0 0 0 11.274 2.119c10.657-2.02 11.732-7.434 11.388-13.193a70.143 70.143 0 0 0-.731-7.778m-6.704-62.096a14.143 14.143 0 0 1 14.31 3.997c4.856 5.414 16.072 19.123 11.56 25.783-4.512 6.661-18.263 10.658-24.58 6.489-6.317-4.168-16.459-12.462-14.998-17.876 1.461-5.415 10.485-17.19 13.708-18.393ZM72.537 86.804c5.199 3.008 13.364 6.875 11.173 12.892-2.192 6.016-10.271 18.048-15.17 19.681-4.899 1.633-14.095 1.633-17.189-3.266-3.094-4.899-3.782-18.779-1.59-21.486 2.192-2.707 13.966-12.935 22.776-7.821Z"/><path fill="none" stroke="#000" stroke-linecap="round" stroke-linejoin="round" stroke-width="8" d="M51.179 93.465c2.922.687 7.349 2.234 6.919 7.606-.301 3.781-7.864 5.887-9.325 5.715m76.706-32.272a6.403 6.403 0 0 0-7.563 7.649 7.438 7.438 0 0 0 8.595 3.438 6.321 6.321 0 0 0 3.867-5.415"/><path fill="none" stroke="#000" stroke-linecap="round" stroke-linejoin="round" stroke-width="8" d="M166.905 175.5H25.095a8.599 8.599 0 0 1-6.078-2.517 8.599 8.599 0 0 1-2.517-6.078V25.095c0-2.279.906-4.467 2.517-6.078a8.599 8.599 0 0 1 6.078-2.517h141.81c2.279 0 4.467.906 6.078 2.517a8.599 8.599 0 0 1 2.517 6.078v141.81a8.599 8.599 0 0 1-2.517 6.078 8.599 8.599 0 0 1-6.078 2.517Z"/></svg>

<svg
    xmlns="http://www.w3.org/2000/svg"
    viewBox="0 0 192 192"
    id="vector">
    <path
        id="path"
        d="M 44.733 175.5 C 44.733 175.5 40.436 165.229 41.081 161.964 C 41.186 157.074 40.445 152.204 38.889 147.568 C 38.158 145.935 34.592 130.765 34.205 128.574 C 33.818 126.382 32.744 106.7 34.205 104.895 C 36.283 102.357 37.845 99.438 38.803 96.301 C 38.381 92.42 38.973 88.496 40.522 84.913 C 42.499 82.034 66.306 55.476 70.001 54.015 C 73.697 52.554 78.295 51.867 79.584 50.964 C 87.673 48.169 96.071 46.366 104.595 45.593 C 111.986 45.593 132.613 54.617 137.684 72.881 C 142.755 91.144 152.381 96 154.014 99.266 C 155.646 102.532 156.205 131.453 156.205 139.575 C 156.205 147.696 159.256 151.865 158.354 154.744 C 157.451 157.623 151.392 175.5 151.392 175.5"
        fill="none"
        stroke="#000000"
        stroke-width="8"
        stroke-linecap="round"
        stroke-linejoin="round"/>
    <path
        id="path_1"
        d="M 88.952 142.282 C 90.084 146.07 92.573 149.31 95.942 151.379 C 99.31 153.447 103.326 154.202 107.216 153.498 C 117.873 151.478 118.948 146.064 118.604 140.305 C 118.505 137.701 118.261 135.104 117.873 132.527 M 111.169 70.431 C 113.69 69.704 116.365 69.692 118.892 70.398 C 121.419 71.104 123.7 72.499 125.479 74.428 C 130.335 79.842 141.551 93.551 137.039 100.211 C 132.527 106.872 118.776 110.869 112.459 106.7 C 106.142 102.532 96 94.238 97.461 88.824 C 98.922 83.409 107.946 71.634 111.169 70.431 Z M 72.537 86.804 C 77.736 89.812 85.901 93.679 83.71 99.696 C 81.518 105.712 73.439 117.744 68.54 119.377 C 63.641 121.01 54.445 121.01 51.351 116.111 C 48.257 111.212 47.569 97.332 49.761 94.625 C 51.953 91.918 63.727 81.69 72.537 86.804 Z"
        fill="none"
        stroke="#000000"
        stroke-width="8"
        stroke-linecap="round"
        stroke-linejoin="round"/>
    <path
        id="path_2"
        d="M 51.179 93.465 C 54.101 94.152 58.528 95.699 58.098 101.071 C 57.797 104.852 50.234 106.958 48.773 106.786 M 125.479 74.514 C 124.078 74.22 122.618 74.406 121.334 75.039 C 120.05 75.673 119.015 76.72 118.395 78.011 C 117.776 79.302 117.607 80.765 117.916 82.163 C 118.749 83.623 120.053 84.758 121.613 85.382 C 123.174 86.007 124.901 86.084 126.511 85.601 C 127.595 85.147 128.532 84.4 129.215 83.444 C 129.898 82.487 130.301 81.359 130.378 80.186"
        fill="none"
        stroke="#000000"
        stroke-width="8"
        stroke-linecap="round"
        stroke-linejoin="round"/>
    <path
        id="path_3"
        d="M 166.905 175.5 L 25.095 175.5 C 22.816 175.5 20.628 174.594 19.017 172.983 C 17.406 171.372 16.5 169.184 16.5 166.905 L 16.5 25.095 C 16.5 22.816 17.406 20.628 19.017 19.017 C 20.628 17.406 22.816 16.5 25.095 16.5 L 166.905 16.5 C 169.184 16.5 171.372 17.406 172.983 19.017 C 174.594 20.628 175.5 22.816 175.5 25.095 L 175.5 166.905 C 175.5 169.184 174.594 171.372 172.983 172.983 C 171.372 174.594 169.184 175.5 166.905 175.5 Z"
        fill="none"
        stroke="#000000"
        stroke-width="8"
        stroke-linecap="round"
        stroke-linejoin="round"/>
</svg>
